app/dist/common/images/digitalocean.svg

<svg height="18" viewBox="0 0 18 18" width="18" xmlns="http://www.w3.org/2000/svg"><path d="m0 0h18v18h-18z" fill="#0080ff"/><path d="m9 14v-2a3 3 0 1 0 -3-3h-2a5.02 5.02 0 0 1 9.75-1.6 5.01 5.01 0 0 1 -4.74 6.6zm-2-2h2v-2h-2zm-1.5 1.5h1.5v-1.5h-1.5zm0-1.5h-1.25v-1.25h1.25z" fill="#fff"/></svg>

<!-- by TradingView --><svg xmlns="http://www.w3.org/2000/svg" width="18" height="18" viewBox="0 0 18 18"><path fill="#0080FF" d="M0 0h18v18H0z"/><path d="M9 14v-2a3 3 0 1 0-3-3H4a5.02 5.02 0 0 1 9.75-1.6A5.01 5.01 0 0 1 9.01 14zm-2-2h2v-2H7v2zm-1.5 1.5H7V12H5.5v1.5zm0-1.5H4.25v-1.25H5.5V12z" fill="#fff"/></svg>
